X:129
T:If God Had Not Been on Our Side
%%stretchlast false
M:4/4
L:1/4
K:Ab clef=C1
"^vi"[FAcf]2 [Fcfa] "^IV"[Ddfa] | "^ii"[B,dfb] "^vi"[FAfc'] "^♭VII"[_GBdb]/ "^v¹"[_GBeb]/ "^V/ii"[Fcf=a] | "^ii"[B,dfb]2 [B,f] "^iii"[Cdeb] | "^♯iii"[DAda] "^♯vii"[B,Af] "^ii7²"[Fdab] "^Imaj7³"[GAec']/ "^vi¹"[Afc']/ | "^V"[EBgb]/ "^Imaj7²"[Ecga]/ "^♯iii"[A,deb] "^I"[A,cea] "^vi"[Fca] | [FAcf] "^♯vii"[FAf] "^IVmaj7"[Dcfa] "^ii7"[B,dfa] | "^ii²"[Fdfb] "^♯vi"[_GAdc']/ "^I7³"[_GAec']/ "^ii"[FBfb] "^V/ii"[B,cf=a] | "^ii"[B,dfb] [B,dfb] "^iii"[Ce] "^♯iii"[Ddb] | "^♯vii"[B,Afa] [FAfa] "^V7¹"[Gdeb]/ "^ii7³"[Adfb]/ "^Imaj7²"[EAgc'] | "^v¹"[A,Beb]/ "^I"[A,cea]/ "^♯iii"[A,deb] "^Imaj7²"[Ecga] "^iii+"[Aca] | "^ii"[Bf] "^v"[Eeb] "^vi7"[Fcec'] "^ii"[B,dfb] | "^iii7"[CBeg] "^IV"[Ddfa] "^♯iii"[Ddb] "^vi"[Fca] | "^v"[EAef] "^vi7²"[CAef] "^♯iii"[B,d] "^v"[A,Aef] | "^viiø7²"[DGfb] "^v"[Eea] "^vi¹"[A,Fcb] "^iii+"[A,Acc'] | "^vi"[Fca] "^vii7³"[FBfg] "^v"[ABef]/ "^♯iii"[ABde]/ "^v¹"[Ae] | "^vi"[Ff] "^vi7²"[CAef]/ "^IV"[DAf]/ "^III+"[Cc=ea] "^ii²"[Fdfb] | "^vi"[Fcfc'] [Fcfa] [Fcfg]/ "^♯vii"[FAf]/ "^iii"[cg] | "^VI¹"[=Af]4 |]
